X:140
T: Waaking of the Fauld
N: O'Farrell's Pocket Companion v.2 (Sky ed. p.74)
N: "Scotch"
N: Meaning of title = ?
M: C
L: 1/8
Q: 150 % "slow"
K: Am
G|EAAB A2 ge|dBAG E2 DE|GABA GEDE|G/^F/G/A/ BA GEDE|
EAAB A2 GA|BABd e2 ga|bage degB|AGEG A3 :|
g|eaab a2 ga|b2 ag e2 de|ga g/a/b G>ABG|g/^f/g/a/ g/a/b G>ABG|
Aaab a3g|edeg a2 ga|ba/g/ ag/e/ d>egB|AGEG A3 :|
